svg/black/hot.svg

<?xml version="1.0" encoding="UTF-8"?>
<svg width="32px" height="32px" viewBox="0 0 32 32" version="1.1" xmlns="http://www.w3.org/2000/svg" xmlns:xlink="http://www.w3.org/1999/xlink">
    <!-- Generator: Sketch 53 (72520) - https://sketchapp.com -->
    <title>svg/black/hot</title>
    <desc>Created with Sketch.</desc>
    <g id="black/hot" stroke="none" stroke-width="1" fill="none" fill-rule="evenodd">
        <path d="M16,32 C7.163444,32 0,24.836556 0,16 C0,7.163444 7.163444,0 16,0 C24.836556,0 32,7.163444 32,16 C32,24.836556 24.836556,32 16,32 Z M7.00045475,21.2305593 C6.88221919,21.4943156 6.78217372,21.7307867 6.6730332,21.9854479 C6.49113233,22.4038199 6.30013643,22.8221919 6.11823556,23.2405639 C6.09095043,23.2951342 6.10914052,23.3133242 6.15461573,23.3224193 C6.23647112,23.3406094 6.31832651,23.3497044 6.4001819,23.3587995 C6.62755798,23.3678945 6.8640291,23.3769895 7.10050023,23.3769895 C7.25511596,23.3860846 7.41882674,23.3860846 7.58253752,23.3769895 C7.86448386,23.3497044 8.1464302,23.3224193 8.42837653,23.2769441 C8.71941792,23.2314688 9.0104593,23.1768986 9.30150068,23.1041382 C9.8108231,22.9768076 10.3110505,22.7949068 10.7930878,22.5675307 C11.1932697,22.3856298 11.5752615,22.1582538 11.9390632,21.9035925 C12.2391996,21.6762165 12.5393361,21.4488404 12.8212824,21.2032742 C13.0031833,21.0395634 13.1759891,20.8667576 13.3306048,20.6757617 C13.5488859,20.4301955 13.7489768,20.1664393 13.9399727,19.902683 C14.1855389,19.5570714 14.3856298,19.1841746 14.5493406,18.7930878 C14.7494316,18.3292406 14.8949523,17.8472033 14.9859027,17.3560709 L15.0859482,17.3560709 C15.6680309,17.3560709 16.2410186,17.3560709 16.8231014,17.3560709 C16.9049568,17.3560709 16.950432,17.374261 16.950432,17.4652115 C16.9595271,17.5106867 16.9686221,17.5652569 16.9868122,17.6107322 C17.0868577,18.0836744 17.2323784,18.5475216 17.4415643,18.9840837 C17.6143702,19.3478854 17.8144611,19.693497 18.0418372,20.0209186 C18.2783083,20.3665302 18.5511596,20.6848568 18.842201,20.9849932 C18.9695316,21.1214188 19.1150523,21.2578445 19.260573,21.37608 C19.4879491,21.5579809 19.7153251,21.7398818 19.9517963,21.9126876 C20.4065484,22.2310141 20.8794907,22.4947704 21.3888131,22.7130514 C21.8162801,22.8949523 22.2528422,23.0404729 22.6984993,23.1496135 C23.0713961,23.2314688 23.4533879,23.2951342 23.8262847,23.3497044 C24.099136,23.3860846 24.3810823,23.4133697 24.6630286,23.4133697 C24.9722601,23.4133697 25.2905866,23.3951796 25.5998181,23.3769895 C25.7271487,23.3678945 25.8453843,23.3406094 25.9727149,23.3133242 C25.8362892,23.0040928 25.7089586,22.7130514 25.581628,22.42201 C25.4179172,22.0582083 25.2633015,21.6944065 25.1086858,21.3306048 C25.0995907,21.3124147 25.0814006,21.3033197 25.0632106,21.2942246 C24.9722601,21.2851296 24.8813097,21.2851296 24.7903593,21.2760346 C24.5538881,21.2578445 24.308322,21.2396544 24.0718508,21.2214643 C23.680764,21.1850841 23.2987722,21.1032287 22.9349704,20.9758981 C22.5529786,20.8485675 22.1800819,20.6848568 21.8344702,20.4847658 C21.4251933,20.2573897 21.0432015,19.9754434 20.7066849,19.6480218 C20.6066394,19.5570714 20.5065939,19.4479309 20.4156435,19.3387904 C20.2610277,19.1568895 20.115507,18.9749886 19.9790814,18.7748977 C19.7517053,18.4383811 19.5698045,18.0745794 19.4424739,17.6925875 C19.4060937,17.583447 19.3788085,17.4743065 19.3424284,17.3469759 L20.6703047,17.3469759 C20.8158254,17.3469759 20.8522055,17.3196908 20.9067758,17.1923602 C21.0886767,16.7557981 21.2796726,16.3283311 21.4615734,15.900864 L21.7253297,15.3005912 C21.7162347,15.2914961 21.7071396,15.2914961 21.6980446,15.2824011 C21.4251933,15.1914507 21.1432469,15.1459754 20.8613006,15.1459754 C20.3883583,15.1368804 19.9063211,15.1459754 19.4333788,15.1459754 L19.3333333,15.1459754 C19.3424284,15.1186903 19.3424284,15.0823101 19.3515234,15.055025 C19.4606639,14.6821282 19.6061846,14.3274216 19.7880855,13.990905 C20.0154616,13.581628 20.2974079,13.2087312 20.6248295,12.8813097 C20.7521601,12.744884 20.9067758,12.6266485 21.0432015,12.5084129 C21.3797181,12.2264666 21.7435198,11.9899955 22.1346066,11.7989995 C22.4529332,11.6443838 22.7894497,11.5170532 23.1350614,11.4170077 C23.680764,11.262392 24.2446567,11.1805366 24.8176444,11.1714416 C24.8722146,11.1805366 24.9176899,11.1805366 24.9722601,11.1714416 C25.0359254,11.1532515 25.1268759,11.1896317 25.163256,11.0986812 C25.2178263,10.9531605 25.2814916,10.8167349 25.3451569,10.6803092 C25.5179627,10.2892224 25.6816735,9.90723056 25.8453843,9.52523874 L26,9.16143702 C25.9818099,9.14324693 25.9818099,9.13415189 25.9727149,9.13415189 C25.7635289,9.09777171 25.5543429,9.0522965 25.3451569,9.04320146 C25.1359709,9.03410641 24.9267849,9.04320146 24.7085039,9.04320146 C24.5629832,9.04320146 24.4265575,9.0522965 24.2810368,9.06139154 C24.0536608,9.07958163 23.8262847,9.09777171 23.6080036,9.13415189 C23.3351523,9.17053206 23.0804911,9.21600728 22.8167349,9.27967258 C22.4711232,9.37062301 22.1255116,9.47976353 21.7799,9.59799909 C21.2796726,9.77989995 20.8067303,10.007276 20.3519782,10.2892224 C19.9063211,10.5620737 19.4970441,10.8713051 19.1150523,11.2169168 C18.9331514,11.3806276 18.7603456,11.5625284 18.5966348,11.7535243 C18.3783538,11.9990905 18.1782628,12.2628467 17.9872669,12.526603 C17.7780809,12.8176444 17.5961801,13.1359709 17.4506594,13.4633925 C17.2687585,13.8544793 17.1232378,14.2637563 17.0140973,14.6912233 C16.9868122,14.836744 16.9595271,14.9822647 16.9231469,15.1277854 C16.3046839,15.1277854 15.686221,15.1277854 15.0768531,15.1277854 C15.0404729,15.1277854 15.0131878,15.1005002 15.0040928,15.0732151 C14.9586176,14.8731241 14.9222374,14.6639382 14.8676671,14.4638472 C14.7039563,13.8544793 14.4583902,13.2723965 14.1218736,12.735789 C13.785357,12.1991814 13.3851751,11.6989541 12.9304229,11.262392 C12.8394725,11.1805366 12.7485221,11.0986812 12.6575716,11.0259209 C12.4574807,10.8622101 12.2482947,10.6984993 12.0391087,10.5438836 C11.5661664,10.207367 11.056844,9.92542065 10.5202365,9.69804457 C10.1382447,9.53433379 9.73806276,9.39790814 9.33788085,9.28876762 C8.70122783,9.12505684 8.05547976,9.02501137 7.4097317,9.00682128 C7.00045475,8.9886312 6.59117781,9.00682128 6.19099591,9.06139154 C6.1273306,9.07958163 6.0636653,9.09777171 6,9.1159618 C6.09095043,9.32514779 6.18190086,9.5161437 6.26375625,9.71623465 C6.37289677,9.95270578 6.47294225,10.1982719 6.58208276,10.4438381 C6.6730332,10.6530241 6.76398363,10.8531151 6.85493406,11.062301 C6.8640291,11.0895862 6.88221919,11.1077763 6.90950432,11.1168713 C6.97316962,11.1259663 7.03683492,11.1350614 7.10050023,11.1350614 C7.36425648,11.1532515 7.61891769,11.1623465 7.88267394,11.1896317 C8.21919054,11.2351069 8.5466121,11.3078672 8.86493861,11.4079127 C9.24693042,11.5352433 9.61982719,11.6989541 9.97453388,11.899045 C10.3201455,12.0900409 10.629377,12.317417 10.9113233,12.5811733 C11.1386994,12.7994543 11.3478854,13.0268304 11.5388813,13.2723965 C11.9299682,13.7726239 12.2119145,14.3456116 12.3756253,14.9640746 C12.3938154,15.0277399 12.3938154,15.0823101 12.4120055,15.1550705 L12.2937699,15.1550705 C11.8481128,15.1550705 11.4115507,15.1459754 10.9658936,15.1550705 C10.9113233,15.1550705 10.8567531,15.1732606 10.8203729,15.2096407 C10.7839927,15.264211 10.7567076,15.3187813 10.7385175,15.3824466 L10.1837199,16.6648477 C10.1109595,16.8467485 10.0381992,17.0195543 9.95634379,17.2014552 C9.96543884,17.2105503 9.97453388,17.2196453 9.99272397,17.2287403 C10.0200091,17.2287403 10.0472942,17.2378354 10.0745794,17.2469304 C10.3656207,17.3105957 10.6566621,17.3469759 10.9567985,17.3469759 C11.3115052,17.3469759 11.675307,17.3469759 12.0300136,17.3469759 L12.3847203,17.3469759 C12.3756253,17.374261 12.3756253,17.4106412 12.3665302,17.4379263 C12.2573897,17.8290132 12.111869,18.211005 11.9117781,18.5657117 C11.684402,18.9658936 11.4024557,19.3387904 11.0750341,19.6662119 C10.9204184,19.8117326 10.7567076,19.9481583 10.5929968,20.0754889 C10.0200091,20.521146 9.36516598,20.8485675 8.66484766,21.0395634 C8.31014097,21.1305139 7.94633925,21.2032742 7.58253752,21.2305593 C7.39154161,21.2396544 7.19145066,21.2305593 7.00045475,21.2305593 Z" id="Combined-Shape" fill="#000000" fill-rule="nonzero"></path>
    </g>
</svg>

<svg width="32" height="32" viewBox="0 0 32 32" xmlns="http://www.w3.org/2000/svg"><path d="M16 32C7.163 32 0 24.837 0 16S7.163 0 16 0s16 7.163 16 16-7.163 16-16 16zM7 21.23c-.118.264-.218.5-.327.755-.182.419-.373.837-.555 1.256-.027.054-.009.072.037.081.081.019.163.028.245.037.228.009.464.018.7.018.155.01.319.01.483 0 .281-.027.563-.055.845-.1a8.122 8.122 0 0 0 2.365-.71 7.21 7.21 0 0 0 1.146-.663c.3-.228.6-.455.882-.7.182-.164.355-.337.51-.528.218-.246.418-.51.609-.773.246-.346.446-.719.61-1.11.2-.464.345-.946.436-1.437h1.837c.082 0 .127.018.127.11.01.045.019.1.037.145.1.473.245.937.455 1.373a7.322 7.322 0 0 0 1.4 2.001c.128.136.273.273.419.391.227.182.454.364.69.537.456.318.928.582 1.438.8a8.51 8.51 0 0 0 1.31.437c.372.081.754.145 1.127.2.273.036.555.063.837.063.31 0 .628-.018.937-.036.127-.01.245-.036.373-.064-.137-.309-.264-.6-.391-.891a53.702 53.702 0 0 1-.473-1.091c-.01-.019-.028-.028-.046-.037-.09-.009-.182-.009-.273-.018l-.718-.055a4.781 4.781 0 0 1-1.137-.245 5.972 5.972 0 0 1-1.1-.491 5.337 5.337 0 0 1-1.42-1.146 6.648 6.648 0 0 1-.436-.564 4.45 4.45 0 0 1-.537-1.082c-.036-.11-.063-.219-.1-.346h1.328c.146 0 .182-.027.237-.155.182-.436.373-.864.555-1.291l.263-.6c-.009-.01-.018-.01-.027-.019a2.643 2.643 0 0 0-.837-.136c-.473-.01-.955 0-1.428 0h-.1c.01-.027.01-.064.019-.091.109-.373.254-.728.436-1.064.227-.41.51-.782.837-1.11.127-.136.282-.254.418-.373.337-.282.7-.518 1.092-.709a6.308 6.308 0 0 1 2.683-.628c.054.01.1.01.154 0 .064-.018.155.019.191-.072.055-.146.118-.282.182-.419.173-.39.337-.773.5-1.155L26 9.161c-.018-.018-.018-.027-.027-.027-.21-.036-.419-.082-.628-.09-.209-.01-.418 0-.636 0-.146 0-.282.008-.428.017-.227.019-.455.037-.673.073a7.581 7.581 0 0 0-.791.146c-.346.09-.691.2-1.037.318-.5.182-.973.41-1.428.691a8.284 8.284 0 0 0-1.237.928 5.797 5.797 0 0 0-.518.537 9.583 9.583 0 0 0-.61.773c-.209.29-.39.609-.536.936-.182.391-.328.8-.437 1.228a7.53 7.53 0 0 1-.09.437h-1.847a.08.08 0 0 1-.073-.055c-.045-.2-.082-.41-.136-.61a6.333 6.333 0 0 0-.746-1.727 7.758 7.758 0 0 0-1.192-1.474c-.09-.081-.181-.163-.272-.236-.2-.164-.41-.328-.619-.482a7.999 7.999 0 0 0-1.519-.846 9.083 9.083 0 0 0-1.182-.41 8.738 8.738 0 0 0-1.928-.281 6.8 6.8 0 0 0-1.219.054L6 9.116c.091.21.182.4.264.6.109.237.209.482.318.728.091.209.182.41.273.618a.08.08 0 0 0 .055.055c.063.009.127.018.19.018.264.018.519.027.783.055.336.045.664.118.982.218.382.127.755.291 1.11.491.345.191.654.418.936.682.228.218.437.446.628.691.391.5.673 1.074.837 1.692.018.064.018.118.036.191h-.118c-.446 0-.882-.009-1.328 0a.207.207 0 0 0-.146.055.603.603 0 0 0-.081.172l-.555 1.283a13.52 13.52 0 0 1-.228.536c.01.01.019.019.037.028.027 0 .054.009.082.018.29.064.582.1.882.1h1.428c-.01.027-.01.064-.018.09a5.05 5.05 0 0 1-.455 1.129c-.228.4-.51.773-.837 1.1a6.751 6.751 0 0 1-.482.41 5.494 5.494 0 0 1-1.928.964 6.276 6.276 0 0 1-1.082.19c-.191.01-.392 0-.583 0z"/></svg>
